packages/tokens/icons/upload/size32Px.svg

<svg viewBox="0 0 32 32" fill="none" xmlns="http://www.w3.org/2000/svg" width="1em" height="1em"><path d="M16 24.5L16 2.5M16 2.5L23 9.5M16 2.5L9 9.5" stroke="currentColor" stroke-linecap="round" stroke-linejoin="round"/><path d="M4.5 15.5V27.5C4.5 28.6046 5.39543 29.5 6.5 29.5H25.5C26.6046 29.5 27.5 28.6046 27.5 27.5V15.5" stroke="currentColor" stroke-linecap="round"/></svg>

<svg xmlns="http://www.w3.org/2000/svg" fill="none" viewBox="0 0 32 32" width="1em" height="1em"><path stroke="currentColor" stroke-linecap="round" stroke-linejoin="round" d="M16 24.5v-22m0 0 7 7m-7-7-7 7"/><path stroke="currentColor" stroke-linecap="round" d="M4.5 15.5v12a2 2 0 0 0 2 2h19a2 2 0 0 0 2-2v-12"/></svg>
